src/assets/projects/icontrol/icontrol-logo-w.svg

<svg height="62" viewBox="0 0 177 62" width="177" xmlns="http://www.w3.org/2000/svg"><g fill="none"><ellipse cx="30.872069" cy="31" fill="#6342b1" rx="30.872069" ry="31"/><g fill="#fff"><path d="m16.548288 27.2352941c0-7.9588235 6.6193152-13.8543007 14.7095893-13.8543007s14.7095893 5.8954772 14.7095893 13.8543007c0 14.2294118-14.7095893 22.6197151-14.7095893 22.6197151s-14.7095893-8.3903033-14.7095893-22.6197151zm14.7095893-2.4117647c-2.696758 0-4.9031964 2.1705882-4.9031964 4.8235294s2.2064384 4.8235294 4.9031964 4.8235294 4.9031964-2.1705882 4.9031964-4.8235294-2.2064384-4.8235294-4.9031964-4.8235294z"/><g transform="translate(75.866211 21.246094)"><path d="m0 1.89160156c0-1.26106771.70247396-1.89160156 2.10742188-1.89160156 1.40494791 0 2.10742187.63053385 2.10742187 1.89160156 0 .60091146-.17561849 1.06852214-.52685547 1.40283203-.35123698.3343099-.87809245.50146485-1.5805664.50146485-1.40494792 0-2.10742188-.63476563-2.10742188-1.90429688zm4.03710938 17.86230464h-3.87207032v-14.19335932h3.87207032z"/><path d="m16.2880859 4.20214844c-1.4811198 0-2.6279297.55647786-3.4404297 1.66943359s-1.21875 2.66389974-1.21875 4.65283207c0 4.1386718 1.5530599 6.2080078 4.6591797 6.2080078 1.3033855 0 2.881836-.3258464 4.7353516-.9775391v3.3007813c-1.5234375.6347656-3.2246094.9521484-5.1035156.9521484-2.6998698 0-4.764974-.8188477-6.19531252-2.456543-1.43033855-1.6376953-2.14550782-3.988444-2.14550782-7.0522461 0-1.92968746.35123698-3.62027991 1.05371094-5.07177731.70247396-1.45149739 1.7117513-2.56445312 3.027832-3.33886718 1.3160808-.77441407 2.8585612-1.1616211 4.6274414-1.1616211 1.8027344 0 3.6139323.4358724 5.4335938 1.30761719l-1.2695313 3.19921875c-.6940104-.33007813-1.3922526-.61783854-2.0947265-.86328125-.702474-.24544271-1.3922526-.36816406-2.069336-.36816406z"/><path d="m27.7519531 12.6318359c0 1.404948.2306315 2.4671224.6918946 3.1865235.461263.719401 1.2124023 1.0791015 2.2534179 1.0791015 1.0325521 0 1.7752279-.3575846 2.2280274-1.0727539.4527994-.7151692.6791992-1.7794596.6791992-3.1928711 0-1.4049479-.2285156-2.4586588-.6855469-3.16113278-.4570312-.70247395-1.2060547-1.05371093-2.2470703-1.05371093-1.0325521 0-1.7773438.34912109-2.234375 1.04736328-.4570312.69824223-.6855469 1.75406903-.6855469 3.16748043zm9.8134766 0c0 2.3105469-.609375 4.1175131-1.828125 5.4208985s-2.9156901 1.9550781-5.0908203 1.9550781c-1.3626302 0-2.5644532-.2983398-3.6054688-.8950195s-1.8408203-1.4536133-2.399414-2.5708008c-.5585938-1.1171875-.8378907-2.4205729-.8378907-3.9101563 0-2.3190104.6051433-4.12174475 1.8154297-5.40820309 1.2102865-1.28645833 2.9114584-1.9296875 5.1035156-1.9296875 1.3626303 0 2.5644532.29622396 3.6054688.88867188 1.0410156.59244791 1.8408203 1.44303385 2.3994141 2.55175781.5585937 1.10872396.8378906 2.4078776.8378906 3.8974609z"/><path d="m53.8662109 19.7539062h-3.8720703v-8.290039c0-1.0240886-.1819661-1.79215496-.5458984-2.30419923s-.9436849-.76806641-1.7392578-.76806641c-1.0833334 0-1.866211.36181641-2.3486328 1.08544922-.4824219.72363282-.7236328 1.92333982-.7236328 3.59912112v6.6777343h-3.8720704v-14.19335932h2.9580078l.5205079 1.81542968h.2158203c.4316406-.68554687 1.0262044-1.2039388 1.7836914-1.55517578s1.6186523-.52685547 2.5834961-.52685547c1.6503906 0 2.9029948.44645183 3.7578125 1.33935547.8548177.89290365 1.2822265 2.18147787 1.2822265 3.86572262z"/><path d="m63.8320312 16.9228516c.6770834 0 1.4895834-.148112 2.4375-.444336v2.881836c-.9648437.4316406-2.1497395.6474609-3.5546874.6474609-1.5488282 0-2.6765951-.3914388-3.3833008-1.1743164-.7067058-.7828776-1.0600586-1.957194-1.0600586-3.5229492v-6.84277346h-1.8535156v-1.63769532l2.1328124-1.29492187 1.1171876-2.99609375h2.4755859v3.02148438h3.9736328v2.90722656h-3.9736328v6.84277346c0 .5501302.1544596.9563802.4633789 1.21875s.7172852.3935547 1.2250976.3935547z"/><path d="m77.0605469 5.29394531c.5247396 0 .960612.03808594 1.3076172.11425781l-.2919922 3.63085938c-.3131511-.08463542-.6940104-.12695312-1.1425781-.12695312-1.2356771 0-2.198405.31738281-2.8881836.95214843-.6897787.63476559-1.034668 1.52343749-1.034668 2.66601559v7.2236328h-3.8720703v-14.19335932h2.9326172l.571289 2.38671874h.1904297c.4401042-.79557291 1.034668-1.43668619 1.7836914-1.92333984.7490235-.48665364 1.5636393-.72998047 2.4438477-.72998047z"/><path d="m83.5097656 12.6318359c0 1.404948.2306315 2.4671224.6918946 3.1865235.461263.719401 1.2124023 1.0791015 2.2534179 1.0791015 1.0325521 0 1.7752279-.3575846 2.2280274-1.0727539.4527994-.7151692.6791992-1.7794596.6791992-3.1928711 0-1.4049479-.2285156-2.4586588-.6855469-3.16113278-.4570312-.70247395-1.2060547-1.05371093-2.2470703-1.05371093-1.0325521 0-1.7773437.34912109-2.234375 1.04736328-.4570313.69824223-.6855469 1.75406903-.6855469 3.16748043zm9.8134766 0c0 2.3105469-.609375 4.1175131-1.828125 5.4208985s-2.9156901 1.9550781-5.0908203 1.9550781c-1.3626302 0-2.5644531-.2983398-3.6054688-.8950195-1.0410156-.5966797-1.8408203-1.4536133-2.399414-2.5708008-.5585938-1.1171875-.8378907-2.4205729-.8378907-3.9101563 0-2.3190104.6051433-4.12174475 1.8154297-5.40820309 1.2102865-1.28645833 2.9114584-1.9296875 5.1035157-1.9296875 1.3626302 0 2.5644531.29622396 3.6054687.88867188 1.0410156.59244791 1.8408203 1.44303385 2.3994141 2.55175781.5585937 1.10872396.8378906 2.4078776.8378906 3.8974609z"/><path d="m100.394531 19.7539062h-3.8720701v-19.7539062h3.8720701z"/></g></g></g></svg>

<?xml version="1.0" encoding="UTF-8"?>
<svg width="177px" height="62px" viewBox="0 0 177 62" version="1.1" xmlns="http://www.w3.org/2000/svg" xmlns:xlink="http://www.w3.org/1999/xlink">
    <title>Artboard</title>
    <g id="Artboard" stroke="none" stroke-width="1" fill="none" fill-rule="evenodd">
        <g id="icontrol-logo-white" fill-rule="nonzero">
            <g id="Group-2">
                <ellipse id="base" fill="#6342B1" cx="30.8720691" cy="31" rx="30.8720691" ry="31"></ellipse>
                <path d="M16.548288,27.2352941 C16.548288,19.2764706 23.1676032,13.3809934 31.2578773,13.3809934 C39.3481514,13.3809934 45.9674666,19.2764706 45.9674666,27.2352941 C45.9674666,41.4647059 31.2578773,49.8550092 31.2578773,49.8550092 C31.2578773,49.8550092 16.548288,41.4647059 16.548288,27.2352941 Z M31.2578773,24.8235294 C28.5611193,24.8235294 26.3546809,26.9941176 26.3546809,29.6470588 C26.3546809,32.3 28.5611193,34.4705882 31.2578773,34.4705882 C33.9546353,34.4705882 36.1610737,32.3 36.1610737,29.6470588 C36.1610737,26.9941176 33.9546353,24.8235294 31.2578773,24.8235294 L31.2578773,24.8235294 Z" id="Shape" fill="#FFFFFF"></path>
            </g>
            <g id="iControl" transform="translate(75.866211, 21.246094)" fill="#FFFFFF">
                <path d="M0,1.89160156 C0,0.630533854 0.702473958,0 2.10742188,0 C3.51236979,0 4.21484375,0.630533854 4.21484375,1.89160156 C4.21484375,2.49251302 4.03922526,2.9601237 3.68798828,3.29443359 C3.3367513,3.62874349 2.80989583,3.79589844 2.10742188,3.79589844 C0.702473958,3.79589844 0,3.16113281 0,1.89160156 Z M4.03710938,19.7539062 L0.165039062,19.7539062 L0.165039062,5.56054688 L4.03710938,5.56054688 L4.03710938,19.7539062 Z" id="i"></path>
                <path d="M16.2880859,4.20214844 C14.8069661,4.20214844 13.6601562,4.7586263 12.8476562,5.87158203 C12.0351562,6.98453776 11.6289062,8.53548177 11.6289062,10.5244141 C11.6289062,14.6630859 13.1819661,16.7324219 16.2880859,16.7324219 C17.5914714,16.7324219 19.1699219,16.4065755 21.0234375,15.7548828 L21.0234375,19.0556641 C19.5,19.6904297 17.7988281,20.0078125 15.9199219,20.0078125 C13.2200521,20.0078125 11.1549479,19.1889648 9.72460938,17.5512695 C8.29427083,15.9135742 7.57910156,13.5628255 7.57910156,10.4990234 C7.57910156,8.56933594 7.93033854,6.87874349 8.6328125,5.42724609 C9.33528646,3.9757487 10.3445638,2.86279297 11.6606445,2.08837891 C12.9767253,1.31396484 14.5192057,0.926757812 16.2880859,0.926757812 C18.0908203,0.926757812 19.9020182,1.36263021 21.7216797,2.234375 L20.4521484,5.43359375 C19.758138,5.10351562 19.0598958,4.81575521 18.3574219,4.5703125 C17.6549479,4.32486979 16.9651693,4.20214844 16.2880859,4.20214844 Z" id="C"></path>
                <path d="M27.7519531,12.6318359 C27.7519531,14.0367839 27.9825846,15.0989583 28.4438477,15.8183594 C28.9051107,16.5377604 29.65625,16.8974609 30.6972656,16.8974609 C31.7298177,16.8974609 32.4724935,16.5398763 32.925293,15.824707 C33.3780924,15.1095378 33.6044922,14.0452474 33.6044922,12.6318359 C33.6044922,11.226888 33.3759766,10.1731771 32.9189453,9.47070312 C32.4619141,8.76822917 31.7128906,8.41699219 30.671875,8.41699219 C29.6393229,8.41699219 28.8945312,8.76611328 28.4375,9.46435547 C27.9804688,10.1625977 27.7519531,11.2184245 27.7519531,12.6318359 Z M37.5654297,12.6318359 C37.5654297,14.9423828 36.9560547,16.749349 35.7373047,18.0527344 C34.5185547,19.3561198 32.8216146,20.0078125 30.6464844,20.0078125 C29.2838542,20.0078125 28.0820312,19.7094727 27.0410156,19.112793 C26,18.5161133 25.2001953,17.6591797 24.6416016,16.5419922 C24.0830078,15.4248047 23.8037109,14.1214193 23.8037109,12.6318359 C23.8037109,10.3128255 24.4088542,8.51009115 25.6191406,7.22363281 C26.8294271,5.93717448 28.530599,5.29394531 30.7226562,5.29394531 C32.0852865,5.29394531 33.2871094,5.59016927 34.328125,6.18261719 C35.3691406,6.7750651 36.1689453,7.62565104 36.7275391,8.734375 C37.2861328,9.84309896 37.5654297,11.1422526 37.5654297,12.6318359 Z" id="o"></path>
                <path d="M53.8662109,19.7539062 L49.9941406,19.7539062 L49.9941406,11.4638672 C49.9941406,10.4397786 49.8121745,9.67171224 49.4482422,9.15966797 C49.0843099,8.6476237 48.5045573,8.39160156 47.7089844,8.39160156 C46.625651,8.39160156 45.8427734,8.75341797 45.3603516,9.47705078 C44.8779297,10.2006836 44.6367188,11.4003906 44.6367188,13.0761719 L44.6367188,19.7539062 L40.7646484,19.7539062 L40.7646484,5.56054688 L43.7226562,5.56054688 L44.2431641,7.37597656 L44.4589844,7.37597656 C44.890625,6.69042969 45.4851888,6.17203776 46.2426758,5.82080078 C47.0001628,5.4695638 47.8613281,5.29394531 48.8261719,5.29394531 C50.4765625,5.29394531 51.7291667,5.74039714 52.5839844,6.63330078 C53.4388021,7.52620443 53.8662109,8.81477865 53.8662109,10.4990234 L53.8662109,19.7539062 Z" id="n"></path>
                <path d="M63.8320312,16.9228516 C64.5091146,16.9228516 65.3216146,16.7747396 66.2695312,16.4785156 L66.2695312,19.3603516 C65.3046875,19.7919922 64.1197917,20.0078125 62.7148438,20.0078125 C61.1660156,20.0078125 60.0382487,19.6163737 59.331543,18.8334961 C58.6248372,18.0506185 58.2714844,16.8763021 58.2714844,15.3105469 L58.2714844,8.46777344 L56.4179688,8.46777344 L56.4179688,6.83007812 L58.5507812,5.53515625 L59.6679688,2.5390625 L62.1435547,2.5390625 L62.1435547,5.56054688 L66.1171875,5.56054688 L66.1171875,8.46777344 L62.1435547,8.46777344 L62.1435547,15.3105469 C62.1435547,15.8606771 62.2980143,16.2669271 62.6069336,16.5292969 C62.9158529,16.7916667 63.3242188,16.9228516 63.8320312,16.9228516 Z" id="t"></path>
                <path d="M77.0605469,5.29394531 C77.5852865,5.29394531 78.0211589,5.33203125 78.3681641,5.40820312 L78.0761719,9.0390625 C77.7630208,8.95442708 77.3821615,8.91210938 76.9335938,8.91210938 C75.6979167,8.91210938 74.7351888,9.22949219 74.0454102,9.86425781 C73.3556315,10.4990234 73.0107422,11.3876953 73.0107422,12.5302734 L73.0107422,19.7539062 L69.1386719,19.7539062 L69.1386719,5.56054688 L72.0712891,5.56054688 L72.6425781,7.94726562 L72.8330078,7.94726562 C73.273112,7.15169271 73.8676758,6.51057943 74.6166992,6.02392578 C75.3657227,5.53727214 76.1803385,5.29394531 77.0605469,5.29394531 Z" id="r"></path>
                <path d="M83.5097656,12.6318359 C83.5097656,14.0367839 83.7403971,15.0989583 84.2016602,15.8183594 C84.6629232,16.5377604 85.4140625,16.8974609 86.4550781,16.8974609 C87.4876302,16.8974609 88.230306,16.5398763 88.6831055,15.824707 C89.1359049,15.1095378 89.3623047,14.0452474 89.3623047,12.6318359 C89.3623047,11.226888 89.1337891,10.1731771 88.6767578,9.47070312 C88.2197266,8.76822917 87.4707031,8.41699219 86.4296875,8.41699219 C85.3971354,8.41699219 84.6523438,8.76611328 84.1953125,9.46435547 C83.7382812,10.1625977 83.5097656,11.2184245 83.5097656,12.6318359 Z M93.3232422,12.6318359 C93.3232422,14.9423828 92.7138672,16.749349 91.4951172,18.0527344 C90.2763672,19.3561198 88.5794271,20.0078125 86.4042969,20.0078125 C85.0416667,20.0078125 83.8398438,19.7094727 82.7988281,19.112793 C81.7578125,18.5161133 80.9580078,17.6591797 80.3994141,16.5419922 C79.8408203,15.4248047 79.5615234,14.1214193 79.5615234,12.6318359 C79.5615234,10.3128255 80.1666667,8.51009115 81.3769531,7.22363281 C82.5872396,5.93717448 84.2884115,5.29394531 86.4804688,5.29394531 C87.843099,5.29394531 89.0449219,5.59016927 90.0859375,6.18261719 C91.1269531,6.7750651 91.9267578,7.62565104 92.4853516,8.734375 C93.0439453,9.84309896 93.3232422,11.1422526 93.3232422,12.6318359 Z" id="o"></path>
                <polygon id="l" points="100.394531 19.7539062 96.5224609 19.7539062 96.5224609 0 100.394531 0"></polygon>
            </g>
        </g>
    </g>
</svg>
